X: 65
T: No_163_(love_songs).krn
N: Derived from No_163_(love_songs).krn
%%abc-version 2.0
%%abcx-abcm2ps-target-version 5.9.1 (29 Sep 2008)
%%abc-creator hum2abc beta
%%abcx-conversion-date 2019/03/15 08:29:13
%%humdrum-veritas 2646924472
%%humdrum-veritas-data 1104372597
%%linebreak <none>
%%barnumbers 0
L: 1/8
M: 3/4
K: E clef=bass
D3/C/ [I:setbarnb 1]||  
[M:2/4]B,/B,3/ B,3/C/ ||  
[M:3/4]B,2A,2=C3/B,/ ||  
[M:2/4]A,/A,3/ A,3/B,/ | 
A,/B,3/ B,3/B,/ | 
A,/A,3/ A,/B,3/ | 
(3A,B,A,- A,3/E,/ | 
E,4 | 
(3A,B,A, E,3/E,/ | 
D,3/D,/D,2 | 
E,3/D,/E,2 | 
E,4 | 
B,2C/B,3/ | 
B,B, B,B, ||  
[M:3/4]A,3/E,/E,2G,G, ||  
[M:2/4]A,3/E,/E,2- | 
E,2G,G, | 
A,3/E,/E,2- | 
E,4 |]  



